app/img/runtime-deno.svg

<svg xmlns="http://www.w3.org/2000/svg" viewBox="0 0 30 30" fill="none">
    <g clip-path="url(#clip0_29_599)">
        <path
            d="M15 0C23.2843 0 30 6.71572 30 15C30 23.2843 23.2843 30 15 30C6.71572 30 0 23.2843 0 15C0 6.71572 6.71572 0 15 0Z"
            fill="currentColor"></path>
        <path
            d="M14.6635 22.3394C14.2788 22.2357 13.8831 22.4584 13.7705 22.8381L13.7655 22.8558L12.7694 26.5472L12.7649 26.565C12.6711 26.9498 12.9011 27.3414 13.2858 27.4451C13.6704 27.549 14.0661 27.3263 14.1787 26.9465L14.1837 26.9289L15.1797 23.2375L15.1843 23.2196C15.1911 23.1919 15.1962 23.164 15.1997 23.1362L15.2026 23.1084L15.179 22.9888L15.1445 22.8166L15.1227 22.7091C15.076 22.619 15.0111 22.5396 14.932 22.4759C14.853 22.4123 14.7615 22.3658 14.6635 22.3394ZM7.7224 18.5379C7.70424 18.5741 7.68883 18.6123 7.67658 18.6522L7.66967 18.6763L6.67358 22.3677L6.669 22.3856C6.57525 22.7704 6.80524 23.1619 7.1899 23.2657C7.57451 23.3695 7.97026 23.1469 8.08287 22.7671L8.08779 22.7494L8.99096 19.4023C8.51793 19.1518 8.09336 18.8628 7.7224 18.5379ZM5.34707 14.2929C4.9624 14.1891 4.56666 14.4117 4.4541 14.7915L4.44912 14.8092L3.45303 18.5006L3.44846 18.5184C3.35471 18.9032 3.58469 19.2947 3.96936 19.3985C4.35397 19.5023 4.74971 19.2797 4.86232 18.8999L4.86725 18.8822L5.86334 15.1908L5.86791 15.173C5.96166 14.7882 5.73174 14.3967 5.34707 14.2929ZM27.682 13.4546C27.2973 13.3508 26.9015 13.5734 26.789 13.9532L26.784 13.9709L25.7879 17.6623L25.7833 17.6801C25.6896 18.0649 25.9196 18.4564 26.3042 18.5602C26.6889 18.664 27.0846 18.4414 27.1972 18.0616L27.2021 18.0439L28.1982 14.3525L28.2028 14.3347C28.2965 13.9499 28.0666 13.5584 27.682 13.4546ZM3.17781 8.52527C2.34361 10.0444 1.81243 11.7112 1.61377 13.4329C1.7088 13.5412 1.83381 13.619 1.97301 13.6563C2.35768 13.7602 2.75342 13.5375 2.86598 13.1577L2.87096 13.1401L3.86705 9.44865L3.87162 9.43084C3.96537 9.04599 3.73539 8.65447 3.35072 8.5507C3.2943 8.53547 3.23623 8.52694 3.17781 8.52527ZM25.159 8.5507C24.7744 8.44687 24.3786 8.66953 24.266 9.04933L24.2611 9.06697L23.265 12.7584L23.2604 12.7762C23.1667 13.161 23.3966 13.5526 23.7813 13.6563C24.1659 13.7602 24.5617 13.5375 24.6743 13.1577L24.6792 13.1401L25.6753 9.44865L25.6799 9.43084C25.7736 9.04599 25.5436 8.65447 25.159 8.5507Z"
            fill="white"></path>
        <path
            d="M7.51285 5.04065C7.12824 4.93682 6.73249 5.15948 6.61988 5.53929L6.61495 5.55692L5.61886 9.24833L5.61429 9.26614C5.52054 9.65098 5.75052 10.0425 6.13519 10.1463C6.5198 10.2501 6.91554 10.0274 7.02816 9.64764L7.03308 9.63001L8.02917 5.9386L8.03374 5.92079C8.12749 5.53595 7.89751 5.14442 7.51285 5.04065ZM20.3116 5.73845C19.9269 5.63462 19.5312 5.85727 19.4186 6.23708L19.4136 6.25471L18.7443 8.73499C19.1779 8.94915 19.5917 9.20126 19.9809 9.48839L20.0453 9.53643L20.8279 6.63639L20.8324 6.61858C20.9262 6.23374 20.6963 5.84221 20.3116 5.73845ZM13.7968 1.57642C13.3296 1.61771 12.8647 1.68338 12.4043 1.77317L12.3066 1.79263L11.3782 5.23419L11.3736 5.252C11.2799 5.63684 11.5099 6.02837 11.8945 6.13214C12.2792 6.23596 12.6749 6.01331 12.7875 5.6335L12.7924 5.61587L13.7885 1.92446L13.7931 1.90665C13.8196 1.79831 13.8209 1.68533 13.7968 1.57642ZM22.9626 4.1263L22.7669 4.85169L22.7623 4.86944C22.6686 5.25429 22.8986 5.64581 23.2832 5.74958C23.6678 5.85341 24.0636 5.63075 24.1762 5.25095L24.1811 5.23331L24.2025 5.15462C23.8362 4.81205 23.4511 4.49009 23.0491 4.19022L22.9626 4.1263ZM17.1672 1.69677L16.8139 3.00593L16.8094 3.02374C16.7156 3.40858 16.9456 3.80011 17.3303 3.90388C17.7149 4.0077 18.1106 3.78505 18.2233 3.40524L18.2282 3.38761L18.6 2.00966C18.1624 1.88867 17.719 1.79001 17.2714 1.71405L17.1672 1.69677Z"
            fill="white"></path>
        <path
            d="M9.69085 24.6253C9.80341 24.2455 10.1992 24.0229 10.5838 24.1266C10.9685 24.2303 11.1984 24.6219 11.1047 25.0068L11.1001 25.0246L10.3872 27.6664L10.2876 27.6297C9.85836 27.4694 9.43765 27.2873 9.0271 27.0839L9.68587 24.6429L9.69085 24.6253Z"
            fill="white"></path>
        <path
            d="M14.4141 8.49082C10.0522 8.49082 6.65918 11.2368 6.65918 14.6517C6.65918 17.8769 9.78123 19.9362 14.6211 19.8331C15.0327 19.8243 15.1517 20.1008 15.2856 20.4734C15.4196 20.846 15.7796 22.8097 16.0665 24.3117C16.3233 25.656 16.5842 27.0052 16.7834 28.3596C19.9439 27.9418 22.8663 26.3807 25.0076 24.0261L22.7237 15.5088C22.1544 13.4518 21.489 11.5564 19.7283 10.1794C18.3118 9.07166 16.5122 8.49082 14.4141 8.49082Z"
            fill="white"></path>
        <path
            d="M15.3516 10.957C15.8694 10.957 16.2891 11.3767 16.2891 11.8945C16.2891 12.4123 15.8694 12.832 15.3516 12.832C14.8338 12.832 14.4141 12.4123 14.4141 11.8945C14.4141 11.3767 14.8338 10.957 15.3516 10.957Z"
            fill="currentColor"></path>
    </g>
    <defs>
        <clipPath id="clip0_29_599">
            <rect width="30" height="30" fill="white"></rect>
        </clipPath>
    </defs>
</svg>

<svg xmlns="http://www.w3.org/2000/svg" fill="none" viewBox="0 0 30 30">
    <g clip-path="url(#a)">
        <path fill="#000" d="M15 0c8.284 0 15 6.716 15 15 0 8.284-6.716 15-15 15-8.284 0-15-6.716-15-15C0 6.716 6.716 0 15 0Z" />
        <path fill="#fff" d="M14.664 22.34a.733.733 0 0 0-.893.498l-.006.018-.996 3.691-.004.018a.732.732 0 0 0 1.414.381l.005-.017.996-3.691.004-.018a.735.735 0 0 0 .016-.084l.003-.028-.024-.12-.034-.171-.022-.108a.732.732 0 0 0-.46-.37Zm-6.942-3.802a.738.738 0 0 0-.045.114l-.007.024-.996 3.692-.005.018a.732.732 0 0 0 1.414.381l.005-.018.903-3.347a6.622 6.622 0 0 1-1.269-.864Zm-2.375-4.245a.732.732 0 0 0-.893.498l-.005.018-.996 3.692-.005.017a.732.732 0 0 0 1.414.382l.005-.018.996-3.691.005-.018a.732.732 0 0 0-.52-.88Zm22.335-.838a.732.732 0 0 0-.893.498l-.005.018-.996 3.691-.005.018a.732.732 0 0 0 1.414.382l.005-.018.996-3.692.005-.017a.732.732 0 0 0-.521-.88ZM3.178 8.525a13.383 13.383 0 0 0-1.564 4.908.732.732 0 0 0 1.252-.275l.005-.018.996-3.691.005-.018a.732.732 0 0 0-.694-.906Zm21.981.026a.732.732 0 0 0-.893.498l-.005.018-.996 3.691-.005.018a.732.732 0 0 0 1.414.382l.005-.018.996-3.691.005-.018a.732.732 0 0 0-.521-.88ZM7.513 5.04a.732.732 0 0 0-.893.5l-.005.017-.996 3.691-.005.018a.732.732 0 0 0 1.414.382l.005-.018.996-3.691.005-.018a.732.732 0 0 0-.521-.88Zm12.799.698a.732.732 0 0 0-.893.5l-.005.017-.67 2.48c.434.214.848.466 1.237.753l.064.048.783-2.9.004-.017a.732.732 0 0 0-.52-.88Zm-6.515-4.162a13.47 13.47 0 0 0-1.393.197l-.097.02-.929 3.441-.004.018a.732.732 0 0 0 1.413.381l.005-.017.997-3.692.004-.017a.728.728 0 0 0 .004-.33Zm9.166 2.55-.196.726-.005.017a.732.732 0 0 0 1.414.382l.005-.018.021-.078a13.548 13.548 0 0 0-1.153-.965l-.086-.064Zm-5.796-2.43-.353 1.31-.005.018a.732.732 0 0 0 1.414.381l.005-.017.372-1.378c-.438-.121-.881-.22-1.329-.296l-.104-.017ZM9.69 24.625a.733.733 0 0 1 1.415.382l-.005.018-.713 2.641-.1-.036c-.429-.16-.85-.343-1.26-.546l.659-2.441.005-.018Z" />
        <path fill="#fff" d="M14.414 8.49c-4.362 0-7.755 2.747-7.755 6.162 0 3.225 3.122 5.284 7.962 5.181.412-.009.53.268.665.64.134.373.494 2.337.78 3.839.257 1.344.518 2.693.717 4.048 3.16-.418 6.083-1.98 8.225-4.334l-2.284-8.517c-.57-2.057-1.235-3.953-2.996-5.33-1.416-1.107-3.216-1.688-5.314-1.688Z" />
        <path fill="#000" d="M15.352 10.957a.937.937 0 1 1 0 1.875.937.937 0 0 1 0-1.875Z" />
    </g>
    <defs>
        <clipPath id="a">
            <path fill="#fff" d="M0 0h30v30H0z" />
        </clipPath>
    </defs>
</svg>
